cutejava-front/src/assets/icons/svg/energy-manage.svg

<?xml version="1.0" standalone="no"?><!DOCTYPE svg PUBLIC "-//W3C//DTD SVG 1.1//EN" "http://www.w3.org/Graphics/SVG/1.1/DTD/svg11.dtd"><svg t="1608282925997" class="icon" viewBox="0 0 1024 1024" version="1.1" xmlns="http://www.w3.org/2000/svg" p-id="3061" xmlns:xlink="http://www.w3.org/1999/xlink" width="200" height="200"><defs><style type="text/css"></style></defs><path d="M942.252101 0h-860.504202A60.235294 60.235294 0 0 0 21.512605 60.235294v903.529412a60.235294 60.235294 0 0 0 60.235294 60.235294h860.504202a60.235294 60.235294 0 0 0 60.235294-60.235294v-903.529412A60.235294 60.235294 0 0 0 942.252101 0zM925.042017 946.554622H98.957983V77.445378H925.042017z" p-id="3062"></path><path d="M253.848739 149.297479h516.302522v81.747899h-516.302522zM696.147899 464.672269h-107.993277l43.02521-111.435294a30.978151 30.978151 0 0 0-28.396639-43.02521H450.47395a30.547899 30.547899 0 0 0-27.966387 18.070588l-123.052101 277.512605a30.547899 30.547899 0 0 0 27.966387 43.02521h118.74958L419.92605 860.504202a30.547899 30.547899 0 0 0 55.932774 20.652101l245.673949-368.726051a30.547899 30.547899 0 0 0-25.384874-47.757983z m-198.346218 255.569748l14.198319-104.981513a27.536134 27.536134 0 0 0-27.536134-30.978151H388.087395l86.05042-193.183193h80.887395l-43.02521 100.248739a27.536134 27.536134 0 0 0 25.815126 37.862185h86.05042z" p-id="3063"></path></svg>

<svg class="icon" viewBox="0 0 1024 1024" xmlns="http://www.w3.org/2000/svg" width="200" height="200"><defs><style/></defs><path d="M942.252 0H81.748a60.235 60.235 0 0 0-60.235 60.235v903.53A60.235 60.235 0 0 0 81.748 1024h860.504a60.235 60.235 0 0 0 60.235-60.235V60.235A60.235 60.235 0 0 0 942.252 0zm-17.21 946.555H98.958V77.445h826.084z"/><path d="M253.849 149.297H770.15v81.748H253.85zm442.299 315.375H588.155l43.025-111.435a30.978 30.978 0 0 0-28.397-43.025h-152.31a30.548 30.548 0 0 0-27.965 18.07L299.455 605.795a30.548 30.548 0 0 0 27.967 43.025h118.75l-26.246 211.684a30.548 30.548 0 0 0 55.933 20.652L721.533 512.43a30.548 30.548 0 0 0-25.385-47.758zm-198.346 255.57L512 615.261a27.536 27.536 0 0 0-27.536-30.979h-96.377l86.05-193.183h80.888L512 491.348a27.536 27.536 0 0 0 25.815 37.862h86.05z"/></svg>
